X:174 
T:Peacock's Feather 2 (hornpipe) 
B:CRE3.219 (Cleite na PÃÂÃÂÃÂÃÂ©acÃÂÃÂÃÂÃÂ³ige 2)
F:file ID: cre.3/174peac_f2
R:hornpipe
L:1/8
Q:150
M:C
K:D
FEED (3ABA AB|defd B2ef|gefd (3efe dB|AGFD E2E2|
FEED (3ABA AB|defd B2ef|gefd (3efe dB|1 Ad (3gfe d2d2:|\
[2 Ad (3gfe d2||
|:fg|afge fdec|defd B4|g2fd (3efe dB|AGFD E4|
FEED A2AB|defd (3BcB ef|gefd (3efe dB|Ad (3gfe d2:|

%%%

